!!!OTL: Tacking of a Full-Rigged Ship Off Shore
!!!ONM: 147.
**kern
*clefG2
*k[]
*C:
!Referent unclear -- Conklin/Pearce
*M4/4
*MM120
{4cc
=1
4b
4a
4g
(8a
8b)
=2
4.cc
8cc
8cc
8cc}
{4g
=3
4a
4b
4dd
8cc
8cc
=4
4dd
4g
4g}
{(8b
8g)
=5
4e
4c
4c
8c
8c
=6
4e
4c
8c
4c}
{8c
=7
(8e
8f)
8g
8g
4g
(8e
8f)
=8
4g
4e
4g}
==
*-
!!!CNT: Folksongs of Maritime Canada
!!!MRD: 1928///-1932///
!!!OCL: Helen Creighton
!!!YOR: Songs and Ballads from Nova Scotia
!!!PPR: J.M. Dent & Sons, Limited
!!!PPP: Toronto, Canada
!!!PDT: 1932///
!!!reprint: Dover Publications, 1992: ISBN 0-486-21703-5
!!!ENC1: Craig Stuart Sapp (music and bibliographic data)                       
!!!ENC2: Marcus Pearce (phrase markings and key designations)                   
!!!ENC3: Darrell Conklin (phrase markings and key designations)   
!!!END: 2002/04/10/
!!!EEV: 2004/06/05
!!!MPN: Mr. Ben Henneberry
!!!PPG: 321
!!!EFL: 149/152
!!!ARE: Canada; Nova Scotia
!!!verses: 15
!!!VTS: 718207261
